src/Icon/svgs/RotateClockwise.svg

<svg xmlns="http://www.w3.org/2000/svg" width="24" height="24" fill="none"><path fill-rule="evenodd" d="M21 10.12h-6.78l2.74-2.82c-2.73-2.7-7.15-2.8-9.88-.1-2.73 2.71-2.73 7.08 0 9.79a7.02 7.02 0 0 0 9.88 0C18.32 15.65 19 14.08 19 12.1h2c0 1.98-.88 4.55-2.64 6.29-3.51 3.48-9.21 3.48-12.72 0-3.5-3.47-3.53-9.11-.02-12.58a8.99 8.99 0 0 1 12.65 0L21 3v7.12z" fill="#1B1C1D"/></svg>

<svg width="24" height="24" viewBox="0 0 24 24" fill="none" xmlns="http://www.w3.org/2000/svg">
<path fill-rule="evenodd" clip-rule="evenodd" d="M21 10.12H14.22L16.96 7.3C14.23 4.6 9.81 4.5 7.08 7.2C4.35 9.91 4.35 14.28 7.08 16.99C9.81 19.7 14.23 19.7 16.96 16.99C18.32 15.65 19 14.08 19 12.1H21C21 14.08 20.12 16.65 18.36 18.39C14.85 21.87 9.15 21.87 5.64 18.39C2.14 14.92 2.11 9.28 5.62 5.81C9.13 2.34 14.76 2.34 18.27 5.81L21 3V10.12Z" fill="#1B1C1D"/>
</svg>
